X:6
T:Enges-Maren (vals)
Z:2008 Brian Wilson <Brian.Wilson@alumni.brown.edu>
Z:Track 5 Smaviltlaget, Lader Om
M:3/4
L:1/8
K:A
EA
||: "A"c3B c2 | "A/E"A3 ABc | "D"d3 ddd | "A"c2 e2 a2
|  "A/E"e2 c2 A2 | "E/B"B3 f ff | "E"d2 B2 G2
|[1 "A"A4 EA :|[2 "A"A3 c (3efg
|| "A"a3 a aa | "E"g2 f2 e2 | "E/B"e2 ge gb | "A"a3 a aa
|  "A/E"e2 c2 A2 | "D"B3 f ff | "E"d2 B2 G2 | "A"A3 c (3efg
|  "A"a3 a aa | "E"g2 f2 e2 | "D"e2 ge gb | "A/C#"a3 a aa
|  "A"e2 c2 A2 | "D"B3 f ff | "E"d2 B2 G2 | "A"A3 A EA |

